material/.icons/material/file-key.svg

<svg xmlns="http://www.w3.org/2000/svg" viewBox="0 0 24 24"><path d="M11 16a1 1 0 11-1-1 1 1 0 011 1m9-8v12a2 2 0 01-2 2H6a2 2 0 01-2-2V4a2 2 0 012-2h8m3 13h-4.17a3 3 0 100 2H14v2h2v-2h1m1.5-8L13 3.5V9z"/></svg>

<?xml version="1.0" encoding="UTF-8"?><!DOCTYPE svg PUBLIC "-//W3C//DTD SVG 1.1//EN" "http://www.w3.org/Graphics/SVG/1.1/DTD/svg11.dtd"><svg xmlns="http://www.w3.org/2000/svg" xmlns:xlink="http://www.w3.org/1999/xlink" version="1.1" id="mdi-file-key" width="24" height="24" viewBox="0 0 24 24"><path d="M11 16A1 1 0 1 1 10 15A1 1 0 0 1 11 16M20 8V20A2 2 0 0 1 18 22H6A2 2 0 0 1 4 20V4A2 2 0 0 1 6 2H14M17 15H12.83A3 3 0 1 0 12.83 17H14V19H16V17H17M18.5 9L13 3.5V9Z" /></svg>
